X:1
T:Stockholm, 11.9.11.9.9
T:Stockholm, 11.9.11.9.9
T:Swedish melody, 1694
T:Public Domain Courtesy of the Cyber Hymnal™
C:Swedish melody, 1694
Z:Public Domain
Z:Courtesy of the Cyber Hymnal™
%%score ( 1 2 ) ( 3 4 )
L:1/8
Q:1/4=140
M:3/4
K:C
V:1 treble 
V:2 treble 
V:3 bass 
V:4 bass 
V:1
 [EA]2 | [CE]2 [B,E]2 [CE]2 | [CA]2 [CA]2 [CG]2 | [Cc]2 [EB]2 [CA]2 | [CG]4 [DB]2 | %5
 [Ec]2 [DB]2 [CA]2 | [B,^G]2 [CA]2 [DB]2 | A6 | [CA]4 [CA]2 | [B,E]2 [CE]2 [B,E]2 | %10
 [A,A]2 [CA]2 [CG]2 | [Cc]2 [CB]2 [CA]2 | [B,G]4 [DG]2 | [CE]2 [A,D]2 [A,C]2 | %14
 [G,D]2 [CE]2 [A,D]2 | (z2 B,2 A,2) | [G,C]4 [G,D]2 | [G,E]2 [CF]2 [B,G]2 | [G,C]2 [A,C]2 [A,D]2 | %19
 [B,E]6 | [B,E]4 |] %21
V:2
 x2 | x6 | x6 | x6 | x6 | x6 | x6 | (D2 C2 B,2) | x6 | x6 | x6 | x6 | x6 | x6 | x6 | C6 | x6 | x6 | %18
 x6 | x6 | x4 |] %21
V:3
 [C,A,]2 | [A,,A,]2 [^G,,B,]2 [A,,A,]2 | [F,,A,]2 [A,,F,]2 [C,E,]2 | [A,,E,]2 [E,G,]2 F,2 | %4
 [C,E,]4 G,2 | [C,G,]2 [G,,G,]2 [A,,F,]2 | E,2 E,2 [D,F,]2 | ([A,,E,]4 [D,F,]2) | %8
 [A,,E,]4 [A,,E,]2 | [^G,,E,]2 [A,,E,]2 [=G,,E,]2 | [F,,F,]2 F,2 [C,E,]2 | %11
 [A,,E,]2 [G,,E,]2 [F,,F,]2 | [G,,D,]4 [B,,G,]2 | [C,G,]2 [D,F,]2 [A,,E,]2 | %14
 [B,,G,]2 [C,G,]2 [G,,G,]2 | E,4 [F,,F,]2 | [C,E,]4 [B,,D,]2 | C,2 [A,,C,]2 [G,,D,]2 | %18
 [E,,E,]2 [A,,E,]2 [F,,A,]2 | (A,2 ^G,2 ^F,2) | [E,,^G,]4 |] %21
V:4
 x2 | x6 | x6 | x4 F,2 | x4 G,2 | x6 | E,2 E,2 x2 | x6 | x6 | x6 | x2 F,2 x2 | x6 | x6 | x6 | x6 | %15
 (A,,2 G,,2) x2 | x6 | C,2 x4 | x6 | E,,6 | x4 |] %21

